; generated by Slic3r 1.3.0-dev on 2017-11-06 at 12:13:21

; external perimeters extrusion width = 0.30mm (1.54mm^3/s)
; perimeters extrusion width = 0.40mm (4.24mm^3/s)
; infill extrusion width = 0.40mm (5.65mm^3/s)
; solid infill extrusion width = 0.40mm (1.41mm^3/s)
; top infill extrusion width = 0.40mm (1.06mm^3/s)

M190 S90 ; set bed temperature and wait for it to be reached
M104 S235 ; set temperature
G28 ; home all axes
G29
G28
; Filament gcode

M109 S235 ; set temperature and wait for it to be reached
G21 ; set units to millimeters
G90 ; use absolute coordinates
M82 ; use absolute distances for extrusion
G92 E0
G1 Z0.200 F7800.000
G1 E-2.00000 F2400.00000
G92 E0
G1 X58.547 Y80.731 F7800.000
G1 E2.00000 F2400.00000
G1 F1800
G1 X61.326 Y79.685 E2.08816
G1 X63.804 Y79.404 E2.16221
G1 X123.825 Y79.404 E3.94430
G1 X126.767 Y79.802 E4.03247
G1 X129.498 Y80.968 E4.12063
G1 X131.821 Y82.818 E4.20879
G1 X133.569 Y85.218 E4.29696
G1 X134.615 Y87.997 E4.38512
G1 X134.896 Y90.475 E4.45916
G1 X134.896 Y109.525 E5.02478
G1 X134.498 Y112.468 E5.11295
G1 X133.332 Y115.198 E5.20111
G1 X131.482 Y117.521 E5.28927
G1 X129.081 Y119.269 E5.37744
G1 X126.303 Y120.315 E5.46560
G1 X123.825 Y120.596 E5.53964
G1 X63.804 Y120.596 E7.32174
G1 X60.862 Y120.198 E7.40990
G1 X58.131 Y119.032 E7.49807
G1 X55.808 Y117.182 E7.58623
G1 X54.060 Y114.782 E7.67439
G1 X53.014 Y112.003 E7.76256
G1 X52.733 Y109.525 E7.83660
G1 X52.733 Y90.475 E8.40222
G1 X53.131 Y87.532 E8.49038
G1 X54.297 Y84.802 E8.57855
G1 X56.147 Y82.479 E8.66671
G1 X58.511 Y80.758 E8.75354
G1 X58.886 Y80.956 F7800.000
G1 F1800
G1 X61.639 Y79.982 E8.84026
G1 X63.804 Y79.761 E8.90488
G1 X123.825 Y79.761 E10.68697
G1 X126.718 Y80.159 E10.77369
G1 X129.397 Y81.324 E10.86042
G1 X131.661 Y83.169 E10.94714
G1 X133.343 Y85.557 E11.03386
G1 X134.318 Y88.310 E11.12059
G1 X134.539 Y90.475 E11.18520
G1 X134.539 Y109.525 E11.75082
G1 X134.141 Y112.419 E11.83754
G1 X132.976 Y115.097 E11.92427
G1 X131.131 Y117.362 E12.01099
G1 X128.743 Y119.044 E12.09772
G1 X125.990 Y120.018 E12.18444
G1 X123.825 Y120.239 E12.24905
G1 X63.804 Y120.239 E14.03115
G1 X60.910 Y119.841 E14.11787
G1 X58.232 Y118.676 E14.20459
G1 X55.967 Y116.831 E14.29132
G1 X54.285 Y114.443 E14.37804
G1 X53.311 Y111.690 E14.46476
G1 X53.090 Y109.525 E14.52938
G1 X53.090 Y90.475 E15.09500
G1 X53.488 Y87.581 E15.18172
G1 X54.653 Y84.903 E15.26845
G1 X56.498 Y82.638 E15.35517
G1 X58.849 Y80.982 E15.44056
G1 X59.223 Y81.186 F7800.000
G1 F1800
G1 X61.949 Y80.285 E15.52582
G1 X63.804 Y80.118 E15.58111
G1 X123.825 Y80.118 E17.36320
G1 X126.669 Y80.516 E17.44846
G1 X129.294 Y81.680 E17.53372
G1 X131.499 Y83.519 E17.61898
G1 X133.114 Y85.894 E17.70424
G1 X134.014 Y88.620 E17.78950
G1 X134.182 Y90.475 E17.84480
G1 X134.182 Y109.525 E18.41042
G1 X133.784 Y112.369 E18.49567
G1 X132.620 Y114.994 E18.58093
G1 X130.781 Y117.199 E18.66619
G1 X128.406 Y118.814 E18.75145
G1 X125.680 Y119.715 E18.83671
G1 X123.825 Y119.882 E18.89201
G1 X63.804 Y119.882 E20.67410
G1 X60.960 Y119.484 E20.75936
G1 X58.335 Y118.320 E20.84462
G1 X56.130 Y116.481 E20.92988
G1 X54.515 Y114.106 E21.01514
G1 X53.614 Y111.380 E21.10040
G1 X53.447 Y109.525 E21.15569
G1 X53.447 Y90.475 E21.72131
G1 X53.845 Y87.631 E21.80657
G1 X55.009 Y85.006 E21.89183
G1 X56.848 Y82.801 E21.97709
G1 X59.186 Y81.212 E22.06101
G1 X59.940 Y81.904 F7800.000
G1 F1800
G1 X60.162 Y81.682 E22.07032
G1 X127.467 Y81.682 E24.06905
G1 X132.618 Y86.833 E24.28537
G1 X132.618 Y113.167 E25.06741
G1 X127.467 Y118.318 E25.28372
G1 X60.162 Y118.318 E27.28245
G1 X55.011 Y113.167 E27.49877
G1 X55.011 Y86.833 E28.28081
G1 X59.908 Y81.936 E28.48648
G1 X60.193 Y82.156 F7800.000
G1 F1800
G1 X60.310 Y82.039 E28.49140
G1 X127.319 Y82.039 E30.48134
G1 X132.261 Y86.981 E30.68887
G1 X132.261 Y113.019 E31.46212
G1 X127.319 Y117.961 E31.66965
G1 X60.310 Y117.961 E33.65959
G1 X55.368 Y113.019 E33.86712
G1 X55.368 Y86.981 E34.64038
G1 X60.161 Y82.188 E34.84165
G1 X60.445 Y82.409 F7800.000
G1 F1800
G1 X127.171 Y82.396 E36.82318
G1 X131.903 Y87.129 E37.02193
G1 X131.903 Y112.871 E37.78639
G1 X127.171 Y117.604 E37.98514
G1 X60.458 Y117.604 E39.96629
G1 X55.725 Y112.871 E40.16504
G1 X55.725 Y87.129 E40.92950
G1 X60.413 Y82.441 E41.12639
G1 X60.606 Y82.754 F7800.000
G1 F1800
G1 X127.023 Y82.754 E43.09876
G1 X131.546 Y87.277 E43.28872
G1 X131.546 Y112.723 E44.04439
G1 X127.023 Y117.246 E44.23435
G1 X60.606 Y117.246 E46.20672
G1 X56.083 Y112.723 E46.39668
G1 X56.083 Y87.277 E47.15236
G1 X60.574 Y82.785 E47.34098
G1 X60.754 Y83.111 F7800.000
G1 F1800
G1 X126.875 Y83.111 E49.30457
G1 X131.189 Y87.425 E49.48574
G1 X131.189 Y112.575 E50.23263
G1 X126.875 Y116.889 E50.41381
G1 X60.754 Y116.889 E52.37739
G1 X56.440 Y112.575 E52.55856
G1 X56.440 Y87.425 E53.30545
G1 X60.722 Y83.142 E53.48529
G1 X60.902 Y83.468 F7800.000
G1 F1800
G1 X126.727 Y83.468 E55.44009
G1 X130.832 Y87.573 E55.61247
G1 X130.832 Y112.427 E56.35058
G1 X126.727 Y116.532 E56.52297
G1 X60.902 Y116.532 E58.47776
G1 X56.797 Y112.427 E58.65015
G1 X56.797 Y87.573 E59.38826
G1 X60.870 Y83.500 E59.55931
G1 X61.049 Y83.825 F7800.000
G1 F1800
G1 X126.579 Y83.825 E61.50532
G1 X130.475 Y87.720 E61.66892
G1 X130.475 Y112.280 E62.39824
G1 X126.579 Y116.175 E62.56184
G1 X61.049 Y116.175 E64.50785
G1 X57.154 Y112.280 E64.67145
G1 X57.154 Y87.720 E65.40077
G1 X61.018 Y83.857 E65.56304
G1 X61.197 Y84.182 F7800.000
G1 F1800
G1 X126.431 Y84.182 E67.50026
G1 X130.118 Y87.868 E67.65507
G1 X130.118 Y112.132 E68.37561
G1 X126.431 Y115.818 E68.53042
G1 X61.197 Y115.818 E70.46765
G1 X57.511 Y112.132 E70.62246
G1 X57.511 Y87.868 E71.34300
G1 X61.166 Y84.214 E71.49647
G1 X61.345 Y84.539 F7800.000
G1 F1800
G1 X126.283 Y84.539 E73.42491
G1 X129.761 Y88.016 E73.57094
G1 X129.761 Y111.984 E74.28269
G1 X126.283 Y115.461 E74.42872
G1 X61.345 Y115.461 E76.35715
G1 X57.868 Y111.984 E76.50318
G1 X57.868 Y88.016 E77.21493
G1 X61.314 Y84.571 E77.35962
G1 X61.493 Y84.896 F7800.000
G1 F1800
G1 X126.136 Y84.896 E79.27927
G1 X129.403 Y88.164 E79.41652
G1 X129.403 Y111.836 E80.11948
G1 X126.136 Y115.104 E80.25672
G1 X61.493 Y115.104 E82.17637
G1 X58.225 Y111.836 E82.31361
G1 X58.225 Y88.164 E83.01657
G1 X61.461 Y84.928 E83.15248
G1 X61.641 Y85.254 F7800.000
G1 F1800
G1 X125.988 Y85.254 E85.06335
G1 X129.046 Y88.312 E85.19180
G1 X129.046 Y111.688 E85.88598
G1 X125.988 Y114.746 E86.01443
G1 X61.641 Y114.746 E87.92530
G1 X58.583 Y111.688 E88.05375
G1 X58.583 Y88.312 E88.74793
G1 X61.609 Y85.285 E88.87505
G1 X61.789 Y85.611 F7800.000
G1 F1800
G1 X125.840 Y85.611 E90.77713
G1 X128.689 Y88.460 E90.89680
G1 X128.689 Y111.540 E91.58219
G1 X125.840 Y114.389 E91.70186
G1 X61.789 Y114.389 E93.60394
G1 X58.940 Y111.540 E93.72361
G1 X58.940 Y88.460 E94.40900
G1 X61.757 Y85.642 E94.52733
G1 X61.937 Y85.968 F7800.000
G1 F1800
G1 X125.692 Y85.968 E96.42062
G1 X128.332 Y88.608 E96.53151
G1 X128.332 Y111.392 E97.20811
G1 X125.692 Y114.032 E97.31899
G1 X61.937 Y114.032 E99.21229
G1 X59.297 Y111.392 E99.32317
G1 X59.297 Y88.608 E99.99977
G1 X61.905 Y86.000 E100.10932
G1 X62.085 Y86.325 F7800.000
G1 F1800
G1 X125.544 Y86.325 E101.99383
G1 X127.975 Y88.756 E102.09592
G1 X127.975 Y111.244 E102.76374
G1 X125.544 Y113.675 E102.86584
G1 X62.085 Y113.675 E104.75034
G1 X59.654 Y111.244 E104.85244
G1 X59.654 Y88.756 E105.52026
G1 X62.053 Y86.357 E105.62102
G1 X62.233 Y86.682 F7800.000
G1 F1800
G1 X125.396 Y86.682 E107.49674
G1 X127.618 Y88.904 E107.59005
G1 X127.618 Y111.096 E108.24908
G1 X125.396 Y113.318 E108.34239
G1 X62.233 Y113.318 E110.21811
G1 X60.011 Y111.096 E110.31142
G1 X60.011 Y88.904 E110.97045
G1 X62.201 Y86.714 E111.06243
G1 X62.381 Y87.039 F7800.000
G1 F1800
G1 X125.248 Y87.039 E112.92936
G1 X127.261 Y89.052 E113.01389
G1 X127.261 Y110.948 E113.66413
G1 X125.248 Y112.961 E113.74866
G1 X62.381 Y112.961 E115.61559
G1 X60.368 Y110.948 E115.70012
G1 X60.368 Y89.052 E116.35036
G1 X62.349 Y87.071 E116.43355
G1 X62.529 Y87.396 F7800.000
G1 F1800
G1 X125.100 Y87.396 E118.29170
G1 X126.903 Y89.200 E118.36744
G1 X126.903 Y110.800 E119.00890
G1 X125.100 Y112.604 E119.08463
G1 X62.529 Y112.604 E120.94278
G1 X60.725 Y110.800 E121.01852
G1 X60.725 Y89.200 E121.65998
G1 X62.497 Y87.428 E121.73438
G1 X62.677 Y87.754 F7800.000
G1 F1800
G1 X72.222 Y87.754 E122.01786
G1 X72.345 Y87.876 E122.02302
G1 X72.493 Y87.876 E122.02741
G1 X72.616 Y87.754 E122.03257
G1 X124.952 Y87.754 E123.58677
G1 X126.546 Y89.348 E123.65372
G1 X126.546 Y110.652 E124.28639
G1 X124.952 Y112.246 E124.35334
G1 X72.616 Y112.246 E125.90754
G1 X72.493 Y112.124 E125.91270
G1 X72.345 Y112.124 E125.91709
G1 X72.222 Y112.246 E125.92226
G1 X62.677 Y112.246 E126.20573
G1 X61.083 Y110.652 E126.27268
G1 X61.083 Y89.348 E126.90535
G1 X62.645 Y87.785 E126.97097
G1 E124.97097 F2400.00000
G92 E0
G1 X72.345 Y88.381 F7800.000
G1 E2.00000 F2400.00000
G1 F1800
G1 X72.493 Y88.381 E2.00439
G1 X72.764 Y88.111 E2.01577
G1 X124.804 Y88.111 E3.56118
G1 X126.189 Y89.496 E3.61934
G1 X126.189 Y110.504 E4.24323
G1 X124.804 Y111.889 E4.30140
G1 X72.764 Y111.889 E5.84681
G1 X72.493 Y111.619 E5.85818
G1 X72.345 Y111.619 E5.86257
G1 X72.075 Y111.889 E5.87395
G1 X62.825 Y111.889 E6.14863
G1 X61.440 Y110.504 E6.20680
G1 X61.440 Y89.496 E6.83069
G1 X62.825 Y88.111 E6.88885
G1 X72.075 Y88.111 E7.16354
G1 X72.313 Y88.350 E7.17358
G1 X72.345 Y88.887 F7800.000
G1 F1800
G1 X72.493 Y88.887 E7.17797
G1 X72.912 Y88.468 E7.19556
G1 X124.656 Y88.468 E8.73218
G1 X125.832 Y89.644 E8.78156
G1 X125.832 Y110.356 E9.39666
G1 X124.656 Y111.532 E9.44604
G1 X72.912 Y111.532 E10.98267
G1 X72.493 Y111.113 E11.00025
G1 X72.345 Y111.113 E11.00464
G1 X71.927 Y111.532 E11.02223
G1 X62.973 Y111.532 E11.28813
G1 X61.797 Y110.356 E11.33751
G1 X61.797 Y89.644 E11.95261
G1 X62.973 Y88.468 E12.00199
G1 X71.927 Y88.468 E12.26789
G1 X72.313 Y88.855 E12.28414
G1 X72.345 Y89.392 F7800.000
G1 F1800
G1 X72.493 Y89.392 E12.28853
G1 X73.060 Y88.825 E12.31233
G1 X124.508 Y88.825 E13.84017
G1 X125.475 Y89.792 E13.88077
G1 X125.475 Y110.208 E14.48708
G1 X124.508 Y111.175 E14.52767
G1 X73.060 Y111.175 E16.05551
G1 X72.493 Y110.608 E16.07931
G1 X72.345 Y110.608 E16.08370
G1 X71.779 Y111.175 E16.10750
G1 X63.121 Y111.175 E16.36462
G1 X62.154 Y110.208 E16.40521
G1 X62.154 Y89.792 E17.01153
G1 X63.121 Y88.825 E17.05212
G1 X71.779 Y88.825 E17.30923
G1 X72.313 Y89.360 E17.33170
G1 X72.345 Y89.897 F7800.000
G1 F1800
G1 X72.493 Y89.897 E17.33609
G1 X73.208 Y89.182 E17.36610
G1 X124.360 Y89.182 E18.88515
G1 X125.118 Y89.939 E18.91696
G1 X125.118 Y110.061 E19.51449
G1 X124.360 Y110.818 E19.54630
G1 X73.208 Y110.818 E21.06535
G1 X72.493 Y110.103 E21.09536
G1 X72.345 Y110.103 E21.09975
G1 X71.631 Y110.818 E21.12977
G1 X63.268 Y110.818 E21.37809
G1 X62.511 Y110.061 E21.40990
G1 X62.511 Y89.939 E22.00743
G1 X63.268 Y89.182 E22.03924
G1 X71.631 Y89.182 E22.28757
G1 X72.313 Y89.865 E22.31624
G1 X72.808 Y90.087 F7800.000
G1 F1800
G1 X73.356 Y89.539 E22.33926
G1 X124.212 Y89.539 E23.84953
G1 X124.761 Y90.087 E23.87255
G1 X124.761 Y109.913 E24.46129
G1 X124.212 Y110.461 E24.48431
G1 X73.356 Y110.461 E25.99458
G1 X72.808 Y109.913 E26.01760
G1 X72.808 Y90.132 E26.60500
G1 X73.165 Y90.235 F7800.000
G1 F1800
G1 X73.504 Y89.896 E26.61924
G1 X124.064 Y89.896 E28.12072
G1 X124.403 Y90.235 E28.13496
G1 X124.403 Y109.765 E28.71491
G1 X124.064 Y110.104 E28.72915
G1 X73.504 Y110.104 E30.23063
G1 X73.165 Y109.765 E30.24486
G1 X73.165 Y90.280 E30.82348
G1 X73.652 Y90.254 F7800.000
G1 F1800
G1 X123.917 Y90.254 E32.31617
G1 X124.046 Y90.383 E32.32162
G1 X124.046 Y109.617 E32.89279
G1 X123.917 Y109.746 E32.89824
G1 X73.652 Y109.746 E34.39094
G1 X73.522 Y109.617 E34.39638
G1 X73.522 Y90.383 E34.96755
G1 X73.620 Y90.285 E34.97167
G1 X72.031 Y90.254 F7800.000
G1 F1800
G1 X72.031 Y109.913 E35.55547
G1 X71.483 Y110.461 E35.57849
G1 X63.416 Y110.461 E35.81804
G1 X62.868 Y109.913 E35.84106
G1 X62.868 Y90.087 E36.42980
G1 X63.416 Y89.539 E36.45282
G1 X71.483 Y89.539 E36.69236
G1 X72.031 Y90.087 E36.71538
G1 X72.031 Y90.209 E36.71898
G1 X71.674 Y90.254 F7800.000
G1 F1800
G1 X71.674 Y109.765 E37.29840
G1 X71.335 Y110.104 E37.31263
G1 X63.564 Y110.104 E37.54339
G1 X63.225 Y109.765 E37.55762
G1 X63.225 Y90.235 E38.13758
G1 X63.564 Y89.896 E38.15181
G1 X71.335 Y89.896 E38.38257
G1 X71.655 Y90.216 E38.39601
G1 X71.317 Y90.383 F7800.000
G1 F1800
G1 X71.317 Y109.617 E38.96718
G1 X71.187 Y109.746 E38.97263
G1 X63.712 Y109.746 E39.19460
G1 X63.583 Y109.617 E39.20005
G1 X63.583 Y90.383 E39.77121
G1 X63.712 Y90.254 E39.77666
G1 X71.187 Y90.254 E39.99863
G1 X71.285 Y90.351 E40.00275
G1 E38.00275 F2400.00000
G92 E0
G1 X123.625 Y109.325 F7800.000
G1 E2.00000 F2400.00000
G1 F1800
G1 X73.943 Y109.325 E3.47511
G1 X73.943 Y90.675 E4.02885
G1 X123.625 Y90.675 E5.50395
G1 X123.625 Y109.280 E6.05636
G1 X123.327 Y109.289 F7800.000
G1 X123.268 Y108.968 F7800.000
G1 F1800
G1 X74.300 Y108.968 E7.51026
G1 X74.300 Y91.032 E8.04280
G1 X123.268 Y91.032 E9.49670
G1 X123.268 Y108.923 E10.02790
G1 X122.911 Y108.611 F7800.000
G1 F1800
G1 X74.658 Y108.611 E11.46060
G1 X74.658 Y91.389 E11.97194
G1 X122.911 Y91.389 E13.40463
G1 X122.911 Y108.566 E13.91463
G1 X122.415 Y108.393 F7800.000
G1 F1800
G1 X122.692 Y108.115 E13.92638
G1 X122.692 Y107.606 E13.94157
G1 X121.906 Y108.393 E13.97480
G1 X121.398 Y108.393 E13.98999
G1 X122.692 Y107.098 E14.04470
G1 X122.692 Y106.590 E14.05989
G1 X120.890 Y108.393 E14.13609
G1 X120.381 Y108.393 E14.15128
G1 X122.692 Y106.082 E14.24896
G1 X122.692 Y105.573 E14.26415
G1 X119.873 Y108.393 E14.38331
G1 X119.365 Y108.393 E14.39850
G1 X122.692 Y105.065 E14.53915
G1 X122.692 Y104.557 E14.55434
G1 X118.856 Y108.393 E14.71648
G1 X118.348 Y108.393 E14.73167
G1 X122.692 Y104.048 E14.91528
G1 X122.692 Y103.540 E14.93047
G1 X117.840 Y108.393 E15.13557
G1 X117.332 Y108.393 E15.15076
G1 X122.692 Y103.032 E15.37735
G1 X122.692 Y102.523 E15.39254
G1 X116.823 Y108.393 E15.64060
G1 X116.315 Y108.393 E15.65579
G1 X122.692 Y102.015 E15.92534
G1 X122.692 Y101.507 E15.94054
G1 X115.807 Y108.393 E16.23157
G1 X115.298 Y108.393 E16.24676
G1 X122.692 Y100.999 E16.55928
G1 X122.692 Y100.490 E16.57447
G1 X114.790 Y108.393 E16.90847
G1 X114.282 Y108.393 E16.92366
G1 X122.692 Y99.982 E17.27915
G1 X122.692 Y99.474 E17.29434
G1 X113.773 Y108.393 E17.67131
G1 X113.265 Y108.393 E17.68650
G1 X122.692 Y98.965 E18.08495
G1 X122.692 Y98.457 E18.10014
G1 X112.757 Y108.393 E18.52008
G1 X112.249 Y108.393 E18.53527
G1 X122.692 Y97.949 E18.97669
G1 X122.692 Y97.440 E18.99188
G1 X111.740 Y108.393 E19.45479
G1 X111.232 Y108.393 E19.46998
G1 X122.692 Y96.932 E19.95437
G1 X122.692 Y96.424 E19.96956
G1 X110.724 Y108.393 E20.47543
G1 X110.215 Y108.393 E20.49062
G1 X122.692 Y95.915 E21.01798
G1 X122.692 Y95.407 E21.03317
G1 X109.707 Y108.393 E21.58201
G1 X109.199 Y108.393 E21.59720
G1 X122.692 Y94.899 E22.16752
G1 X122.692 Y94.391 E22.18271
G1 X108.690 Y108.393 E22.77452
G1 X108.182 Y108.393 E22.78971
G1 X122.692 Y93.882 E23.40300
G1 X122.692 Y93.374 E23.41819
G1 X107.674 Y108.393 E24.05297
G1 X107.165 Y108.393 E24.06816
G1 X122.692 Y92.866 E24.72442
G1 X122.692 Y92.357 E24.73961
G1 X106.657 Y108.393 E25.41735
G1 X106.149 Y108.393 E25.43254
G1 X122.692 Y91.849 E26.13177
G1 X122.692 Y91.607 E26.13899
G1 X122.426 Y91.607 E26.14696
G1 X105.641 Y108.393 E26.85640
G1 X105.132 Y108.393 E26.87159
G1 X121.918 Y91.607 E27.58104
G1 X121.409 Y91.607 E27.59623
G1 X104.624 Y108.393 E28.30567
G1 X104.116 Y108.393 E28.32086
G1 X120.901 Y91.607 E29.03030
G1 X120.393 Y91.607 E29.04549
G1 X103.607 Y108.393 E29.75493
G1 X103.099 Y108.393 E29.77013
G1 X119.884 Y91.607 E30.47957
G1 X119.376 Y91.607 E30.49476
G1 X102.591 Y108.393 E31.20420
G1 X102.082 Y108.393 E31.21939
G1 X118.868 Y91.607 E31.92883
G1 X118.359 Y91.607 E31.94403
G1 X101.574 Y108.393 E32.65347
G1 X101.066 Y108.393 E32.66866
G1 X117.851 Y91.607 E33.37810
G1 X117.343 Y91.607 E33.39329
G1 X100.558 Y108.393 E34.10273
G1 X100.049 Y108.393 E34.11792
G1 X116.835 Y91.607 E34.82737
G1 X116.326 Y91.607 E34.84256
G1 X99.541 Y108.393 E35.55200
G1 X99.033 Y108.393 E35.56719
G1 X115.818 Y91.607 E36.27663
G1 X115.310 Y91.607 E36.29182
G1 X98.524 Y108.393 E37.00127
G1 X98.016 Y108.393 E37.01646
